icons/logo-github-24.svg

<svg width="68" height="24" viewBox="0 0 68 24" fill="none" xmlns="http://www.w3.org/2000/svg">
<path d="M16.4425 19.7066V8.71394H19.6458V19.7066H16.4425ZM25.9106 19.7066C23.7818 19.7066 22.9505 18.8264 22.9505 16.9682V11.2958H20.9231V8.71394H22.9505V6.52323L26.1538 5.79951V8.71394H28.5259V11.2958H26.1538V16.2836C26.1538 16.89 26.4377 17.1247 27.0662 17.1247H28.5259V19.7066H25.9106ZM48.0906 19.9022C45.5969 19.9022 44.2385 18.5721 44.2385 16.1467V8.71394H47.4621V15.3252C47.4621 16.6748 48.0906 17.4181 49.2868 17.4181C50.6655 17.4181 51.7197 16.1858 51.7197 14.5037V8.71394H54.9434V19.7066H51.7197V17.8484C51.1115 19.0416 49.6518 19.9022 48.0906 19.9022ZM63.3572 19.9022C61.6947 19.9022 60.2755 19.0416 59.7078 17.8093V19.7066H56.5045V4.37164H59.7281V10.7286C60.2755 9.39853 61.7555 8.45966 63.3572 8.45966C66.3578 8.45966 68 10.533 68 14.1907C68 17.8093 66.297 19.9022 63.3572 19.9022ZM62.2218 17.3007C63.7829 17.3007 64.6953 16.1076 64.6953 14.1907C64.6953 12.2543 63.7829 11.0611 62.2218 11.0611C60.7824 11.0611 59.7281 12.313 59.7281 14.0342V14.2103C59.7281 15.9902 60.7824 17.3007 62.2218 17.3007ZM39.3119 4.37164V10.5917H33.2701V4.37164H29.8235V19.7066H33.2701V13.5648H39.3119V19.7066H42.7585V4.37164H39.3119ZM7.66368 20C2.96005 20 0 16.89 0 12.0196C0 7.14914 3.02087 4.07824 7.80561 4.07824C11.6983 4.07824 14.0501 5.68215 14.8002 8.38142L11.3131 9.18337C10.8873 7.71638 9.67084 6.91443 7.80561 6.91443C5.02803 6.91443 3.52773 8.67482 3.52773 12.0196C3.52773 15.3643 4.98748 17.1638 7.72451 17.1638C10.2385 17.1638 11.7388 15.6773 11.7388 13.154V12.5672L12.6309 13.7604H7.44067V10.9438H15.226V12.7237C15.226 17.3985 12.4079 20 7.66368 20ZM18.0441 7.67726C19.1187 7.67726 19.9499 6.87531 19.9499 5.83863C19.9499 4.80196 19.1187 4 18.0441 4C16.9696 4 16.1383 4.80196 16.1383 5.83863C16.1383 6.87531 16.9696 7.67726 18.0441 7.67726Z" fill="black"/>
</svg>

<svg xmlns="http://www.w3.org/2000/svg" width="68" height="24" viewBox="0 0 68 24"><path d="M16.442 19.707V8.714h3.204v10.993h-3.204Zm9.469 0c-2.129 0-2.96-.881-2.96-2.739v-5.672h-2.028V8.714h2.028V6.523l3.203-.723v2.914h2.372v2.582h-2.372v4.988c0 .606.284.841.912.841h1.46v2.582h-2.615Zm22.18.195c-2.494 0-3.852-1.33-3.852-3.755V8.714h3.223v6.611c0 1.35.629 2.093 1.825 2.093 1.379 0 2.433-1.232 2.433-2.914v-5.79h3.223v10.993H51.72v-1.859c-.609 1.194-2.068 2.054-3.629 2.054Zm15.266 0c-1.662 0-3.081-.86-3.649-2.093v1.898h-3.203V4.372h3.223v6.357c.548-1.33 2.027-2.269 3.629-2.269 3.001 0 4.643 2.073 4.643 5.731 0 3.618-1.703 5.711-4.643 5.711Zm-1.135-2.601c1.561 0 2.473-1.193 2.473-3.11 0-1.937-.912-3.13-2.473-3.13-1.44 0-2.494 1.252-2.494 2.973v.176c0 1.78 1.054 3.091 2.494 3.091ZM39.312 4.372v6.22H33.27v-6.22h-3.447v15.335h3.447v-6.142h6.042v6.142h3.446V4.372h-3.446ZM7.664 20C2.96 20 0 16.89 0 12.02c0-4.871 3.021-7.942 7.806-7.942 3.892 0 6.244 1.604 6.994 4.303l-3.487.802c-.426-1.467-1.642-2.269-3.507-2.269-2.778 0-4.278 1.761-4.278 5.106 0 3.344 1.459 5.144 4.197 5.144 2.514 0 4.014-1.487 4.014-4.01v-.587l.892 1.193h-5.19v-2.816h7.785v1.78c0 4.674-2.818 7.276-7.562 7.276Zm10.38-12.323c1.075 0 1.906-.802 1.906-1.838C19.95 4.802 19.119 4 18.044 4c-1.074 0-1.906.802-1.906 1.839 0 1.036.832 1.838 1.906 1.838Z"/></svg>
